icons/src/scalable/default/devices/input-dialpad-symbolic.svg

<svg version="1.1" viewBox="0 0 16 16" xmlns="http://www.w3.org/2000/svg">
 <path d="m3 0.5c-0.277 0-0.5 0.223-0.5 0.5v2c0 0.277 0.223 0.5 0.5 0.5h2c0.277 0 0.5-0.223 0.5-0.5v-2c0-0.277-0.223-0.5-0.5-0.5h-2zm4 0c-0.277 0-0.5 0.223-0.5 0.5v2c0 0.277 0.223 0.5 0.5 0.5h2c0.277 0 0.5-0.223 0.5-0.5v-2c0-0.277-0.223-0.5-0.5-0.5h-2zm4 0c-0.277 0-0.5 0.223-0.5 0.5v2c0 0.277 0.223 0.5 0.5 0.5h2c0.277 0 0.5-0.223 0.5-0.5v-2c0-0.277-0.223-0.5-0.5-0.5h-2zm-8 4c-0.277 0-0.5 0.223-0.5 0.5v2c0 0.277 0.223 0.5 0.5 0.5h2c0.277 0 0.5-0.223 0.5-0.5v-2c0-0.277-0.223-0.5-0.5-0.5h-2zm4 0c-0.277 0-0.5 0.223-0.5 0.5v2c0 0.277 0.223 0.5 0.5 0.5h2c0.277 0 0.5-0.223 0.5-0.5v-2c0-0.277-0.223-0.5-0.5-0.5h-2zm4 0c-0.277 0-0.5 0.223-0.5 0.5v2c0 0.277 0.223 0.5 0.5 0.5h2c0.277 0 0.5-0.223 0.5-0.5v-2c0-0.277-0.223-0.5-0.5-0.5h-2zm-8 4c-0.277 0-0.5 0.223-0.5 0.5v2c0 0.277 0.223 0.5 0.5 0.5h2c0.277 0 0.5-0.223 0.5-0.5v-2c0-0.277-0.223-0.5-0.5-0.5h-2zm4 0c-0.277 0-0.5 0.223-0.5 0.5v2c0 0.277 0.223 0.5 0.5 0.5h2c0.277 0 0.5-0.223 0.5-0.5v-2c0-0.277-0.223-0.5-0.5-0.5h-2zm4 0c-0.277 0-0.5 0.223-0.5 0.5v2c0 0.277 0.223 0.5 0.5 0.5h2c0.277 0 0.5-0.223 0.5-0.5v-2c0-0.277-0.223-0.5-0.5-0.5h-2zm-4 4c-0.277 0-0.5 0.223-0.5 0.5v2c0 0.277 0.223 0.5 0.5 0.5h2c0.277 0 0.5-0.223 0.5-0.5v-2c0-0.277-0.223-0.5-0.5-0.5h-2z" fill="#bebebe"/>
</svg>

<svg xmlns="http://www.w3.org/2000/svg" viewBox="0 0 16 16">
  <defs id="defs3051">
    <style type="text/css" id="current-color-scheme">
      .ColorScheme-Text {
        color:#4d4d4d;
      }
      </style>
  </defs>
 <path 
     style="fill:#bebebe;fill-opacity:1;stroke:none" 
     class="ColorScheme-Text"
     d="M 3 0.5 C 2.723 0.5 2.5 0.723 2.5 1 L 2.5 3 C 2.5 3.277 2.723 3.5 3 3.5 L 5 3.5 C 5.277 3.5 5.5 3.277 5.5 3 L 5.5 1 C 5.5 0.723 5.277 0.5 5 0.5 L 3 0.5 z M 7 0.5 C 6.723 0.5 6.5 0.723 6.5 1 L 6.5 3 C 6.5 3.277 6.723 3.5 7 3.5 L 9 3.5 C 9.277 3.5 9.5 3.277 9.5 3 L 9.5 1 C 9.5 0.723 9.277 0.5 9 0.5 L 7 0.5 z M 11 0.5 C 10.723 0.5 10.5 0.723 10.5 1 L 10.5 3 C 10.5 3.277 10.723 3.5 11 3.5 L 13 3.5 C 13.277 3.5 13.5 3.277 13.5 3 L 13.5 1 C 13.5 0.723 13.277 0.5 13 0.5 L 11 0.5 z M 3 4.5 C 2.723 4.5 2.5 4.723 2.5 5 L 2.5 7 C 2.5 7.277 2.723 7.5 3 7.5 L 5 7.5 C 5.277 7.5 5.5 7.277 5.5 7 L 5.5 5 C 5.5 4.723 5.277 4.5 5 4.5 L 3 4.5 z M 7 4.5 C 6.723 4.5 6.5 4.723 6.5 5 L 6.5 7 C 6.5 7.277 6.723 7.5 7 7.5 L 9 7.5 C 9.277 7.5 9.5 7.277 9.5 7 L 9.5 5 C 9.5 4.723 9.277 4.5 9 4.5 L 7 4.5 z M 11 4.5 C 10.723 4.5 10.5 4.723 10.5 5 L 10.5 7 C 10.5 7.277 10.723 7.5 11 7.5 L 13 7.5 C 13.277 7.5 13.5 7.277 13.5 7 L 13.5 5 C 13.5 4.723 13.277 4.5 13 4.5 L 11 4.5 z M 3 8.5 C 2.723 8.5 2.5 8.723 2.5 9 L 2.5 11 C 2.5 11.277 2.723 11.5 3 11.5 L 5 11.5 C 5.277 11.5 5.5 11.277 5.5 11 L 5.5 9 C 5.5 8.723 5.277 8.5 5 8.5 L 3 8.5 z M 7 8.5 C 6.723 8.5 6.5 8.723 6.5 9 L 6.5 11 C 6.5 11.277 6.723 11.5 7 11.5 L 9 11.5 C 9.277 11.5 9.5 11.277 9.5 11 L 9.5 9 C 9.5 8.723 9.277 8.5 9 8.5 L 7 8.5 z M 11 8.5 C 10.723 8.5 10.5 8.723 10.5 9 L 10.5 11 C 10.5 11.277 10.723 11.5 11 11.5 L 13 11.5 C 13.277 11.5 13.5 11.277 13.5 11 L 13.5 9 C 13.5 8.723 13.277 8.5 13 8.5 L 11 8.5 z M 7 12.5 C 6.723 12.5 6.5 12.723 6.5 13 L 6.5 15 C 6.5 15.277 6.723 15.5 7 15.5 L 9 15.5 C 9.277 15.5 9.5 15.277 9.5 15 L 9.5 13 C 9.5 12.723 9.277 12.5 9 12.5 L 7 12.5 z "
     />
</svg>
